X: 2725
T: Banks Of My Own Lovely Lee, The
R: waltz
M: 3/4
K: Dmajor
AG|F4EF|G4FG|Af3e2|d4dd|
c4Bc|E2^F2^G2|A6|z4AG|
F4EF|G4FG|Af3e2|d4dd|
c4Bc|E2^F2^G2|A6|z4AA|
e4cA|G6|B2A2G2|F4FF|
F2E3D|D2C2D2|F6|E4FA|
d4ed|c4EF|G2c2B2|A4AA|
A2E2F2|G2A2G2|F6|z4FA|
d4ed|c4EF|G2c2B2|A4AA|
A4^GA|c2B2c2|d6|z4|

